flaticon/interaction/file-4.svg

<svg xmlns="http://www.w3.org/2000/svg" width="32" height="32" viewBox="0 0 24 24">
    <path d="M14.6875 8.800781L4.6875 8.800781C4.46875 8.800781 4.289062 8.980469 4.289062 9.199219 4.289062 9.421875 4.46875 9.601562 4.6875 9.601562L14.6875 9.601562C14.910156 9.601562 15.085938 9.421875 15.085938 9.199219 15.085938 8.980469 14.910156 8.800781 14.6875 8.800781zM4.6875 6.398438L8.6875 6.398438C8.910156 6.398438 9.085938 6.222656 9.085938 6 9.085938 5.777344 8.910156 5.601562 8.6875 5.601562L4.6875 5.601562C4.46875 5.601562 4.289062 5.777344 4.289062 6 4.289062 6.222656 4.46875 6.398438 4.6875 6.398438zM14.6875 12L4.6875 12C4.46875 12 4.289062 12.179688 4.289062 12.398438 4.289062 12.621094 4.46875 12.800781 4.6875 12.800781L14.6875 12.800781C14.910156 12.800781 15.085938 12.621094 15.085938 12.398438 15.085938 12.179688 14.910156 12 14.6875 12zM11.488281 15.199219L4.6875 15.199219C4.46875 15.199219 4.289062 15.378906 4.289062 15.601562 4.289062 15.820312 4.46875 16 4.6875 16L11.488281 16C11.707031 16 11.886719 15.820312 11.886719 15.601562 11.886719 15.378906 11.707031 15.199219 11.488281 15.199219zM10.289062 19.199219C10.507812 19.199219 10.6875 19.019531 10.6875 18.800781 10.6875 18.578125 10.507812 18.398438 10.289062 18.398438L4.6875 18.398438C4.46875 18.398438 4.289062 18.578125 4.289062 18.800781 4.289062 19.019531 4.46875 19.199219 4.6875 19.199219zM10.289062 19.199219"/>
    <path d="M 1.085938 0.800781 L 12.6875 0.800781 L 12.6875 6.398438 L 18.289062 6.398438 L 18.289062 13.601562 L 19.085938 13.601562 L 19.085938 5.835938 L 13.253906 0 L 0.289062 0 L 0.289062 24 L 11.886719 24 L 11.886719 23.199219 L 1.085938 23.199219 Z M 13.488281 1.367188 L 17.722656 5.601562 L 13.488281 5.601562 Z M 13.488281 1.367188"/>
    <path d="M 23.363281 14.863281 L 22.222656 13.726562 C 21.773438 13.273438 20.984375 13.273438 20.535156 13.726562 L 14.378906 19.878906 L 13.53125 22.992188 L 13.320312 23.199219 C 13.167969 23.355469 13.167969 23.605469 13.320312 23.761719 L 13.316406 23.769531 L 13.324219 23.769531 C 13.402344 23.84375 13.503906 23.882812 13.605469 23.882812 C 13.707031 23.882812 13.808594 23.84375 13.886719 23.765625 L 14.09375 23.558594 L 17.207031 22.710938 L 23.363281 16.554688 C 23.589844 16.328125 23.710938 16.027344 23.710938 15.707031 C 23.710938 15.390625 23.589844 15.089844 23.363281 14.863281 Z M 15.300781 20.089844 L 19.398438 15.992188 L 21.097656 17.6875 L 17 21.785156 Z M 14.941406 20.859375 L 16.226562 22.148438 L 14.457031 22.628906 Z M 22.796875 15.988281 L 21.660156 17.125 L 19.964844 15.425781 L 21.101562 14.289062 C 21.25 14.140625 21.507812 14.140625 21.65625 14.289062 L 22.796875 15.429688 C 22.871094 15.503906 22.914062 15.605469 22.914062 15.707031 C 22.914062 15.8125 22.871094 15.914062 22.796875 15.988281 Z M 22.796875 15.988281"/>
</svg>

<svg xmlns="http://www.w3.org/2000/svg" width="32" height="32" viewBox="0 0 24 24">
    <path d="M14.688 8.8h-10a.4.4 0 0 0 0 .802h10c.222 0 .398-.18.398-.403a.398.398 0 0 0-.399-.398zm0 0M4.688 6.398h4A.395.395 0 0 0 9.085 6a.395.395 0 0 0-.399-.398h-4a.398.398 0 1 0 0 .796zm0 0M14.688 12h-10a.4.4 0 0 0 0 .8h10c.222 0 .398-.179.398-.402a.398.398 0 0 0-.399-.398zm0 0M11.488 15.2h-6.8a.401.401 0 0 0 0 .8h6.8a.4.4 0 0 0 0-.8zm0 0M10.29 19.2a.4.4 0 0 0 0-.802H4.687a.401.401 0 0 0 0 .801zm0 0"/>
    <path d="M1.086.8h11.601v5.598h5.602v7.204h.797V5.836L13.254 0H.289v24h11.598v-.8H1.086zm12.402.567l4.235 4.235h-4.235zm0 0"/>
    <path d="M23.363 14.863l-1.14-1.136c-.45-.454-1.239-.454-1.688 0l-6.156 6.152-.848 3.113-.21.207a.403.403 0 0 0 0 .563l-.005.008h.008a.41.41 0 0 0 .281.113c.102 0 .204-.04.282-.117l.207-.207 3.113-.848 6.156-6.156c.227-.227.348-.528.348-.848 0-.316-.121-.617-.348-.844zm-8.062 5.227l4.097-4.098 1.7 1.695L17 21.785zm-.36.77l1.286 1.288-1.77.48zm7.856-4.872l-1.137 1.137-1.695-1.7 1.137-1.136a.401.401 0 0 1 .554 0l1.14 1.14a.397.397 0 0 1 .118.278.4.4 0 0 1-.117.281zm0 0"/>
</svg>
